X:210
T: Hunt's
M: 6/8
L: 1/8
S: B.Flaherty
Z: B.Black
R: jig
K: G
d | BGB dBG | BcB B2 d | BGB dcB | AGA DFA |
BAB cBc | def gag | f2 d cBA | AGF G2 :|
B/c/ | dBd gdB | dBd gdB | EFA cBA | EFA cBA |
B2-B cBc | def g2 g | fed cBA | AGF G2 :|
